transmission-tower.svg

<svg fill="currentColor" viewBox="0 0 24 24"><path d="m8.28 5.45-1.78-.9L7.76 2h8.47l1.27 2.55-1.78.89L15 4H9zM18.62 8h-4.53l-.79-3h-2.6l-.79 3H5.38L4.1 10.55l1.79.89.73-1.44h10.76l.72 1.45 1.79-.89zm-.85 14H15.7l-.24-.9L12 15.9l-3.47 5.2-.23.9H6.23l2.89-11h2.07l-.36 1.35L12 14.1l1.16-1.75-.35-1.35h2.07zm-6.37-7-.9-1.35-1.18 4.48zm3.28 3.12-1.18-4.48-.9 1.36z"/></svg>

<svg  viewBox="0 0 24 24" fill="currentColor"><path  d="M8.28,5.45L6.5,4.55L7.76,2H16.23L17.5,4.55L15.72,5.44L15,4H9L8.28,5.45M18.62,8H14.09L13.3,5H10.7L9.91,8H5.38L4.1,10.55L5.89,11.44L6.62,10H17.38L18.1,11.45L19.89,10.56L18.62,8M17.77,22H15.7L15.46,21.1L12,15.9L8.53,21.1L8.3,22H6.23L9.12,11H11.19L10.83,12.35L12,14.1L13.16,12.35L12.81,11H14.88L17.77,22M11.4,15L10.5,13.65L9.32,18.13L11.4,15M14.68,18.12L13.5,13.64L12.6,15L14.68,18.12Z"/></svg>
